!!!OTL: Die drei heiligen Frauen an Jesu Grabe
!!!ARE: Europa, Mitteleuropa, Deutschland
!!!SCT: A0558
!!!YEM: Copyright 1995, estate of Helmut Schaffrath.
**kern
*ICvox
*Ivox
*M3/1
*k[b-]
*d:
{1a
=1
1a
1a
1g
=2
0fn
1d
=3
1a
0ccn
=4
0a}
{1b-
=5
1a
1a
1g
=6
0fn
1d
=7
1a
0ccn
=8
0a}
{1a
=9
1dd
1dd
1dd
=10
0ccn
1a
=11
0ccn
1b-
=12
0a}
{1b-
=13
0a
1g
=14
1.a
2g
1fn
=15
0e
1fn
=16
0d}
{1e
=17
0cn
1d
=18
1d
0d
=19
0d}
==
!!!AGN: Romanze, Ballade, Lied, religioeses Lied
!! Muenchner Gsgb 1586 fol. 21.
!!!ONB: ESAC (Essen Associative Code) Database: ALTDEU
!!!AMT: simple triple
!!!AIN: vox
!!!EED: Helmut Schaffrath
!!!EEV: 1.0
*-
